X:1845
T:Fahy's jig #2
O:england
R:jig
C:Paddy Fahy
S:Mulvihill's tune collection
M:6/8
L:1/8
K:C
|:DGA ~_B3|c_Bc d2g|{a}gdc Bcd|cAG =FE=F|
DGA ~_B3|c_Bc d2g|{a}gdc Bcd|1 cA^F G=F_E:|2 cA^F GBd|
|:~g3 ga^f|gdc Bcd|cAA ~=f3|ag^f de^f|
g2a _bag|^fdg ^fdc|A_BG Adc|1 AG^F GBd:|2 AG^F G=F_E||


